!!!OTL: Altes Jagdhorn - Stueckchen.
!!!ARE: Europa, Mitteleuropa, Deutschland
!!!SCT: A0442
!!!TXL: @@GMH
!!!YEM: Copyright 1995, estate of Helmut Schaffrath.
**kern	**text
*M3/1	*
*met(C|3)	*
*clefC4	*
*k[b-]	*
*F:ion	*
=1	=1
!LO:TX:a:t=jon.	!
1ryy	.
1ryy	.
{1C	I.Es
=2	=2
0F	jagt
1G	ein
=3	=3
*lig	*
1A	Jä-
1F	.
*Xlig	*
1c	-ger
=4	=4
*lig	*
0c	gſchwin-
1B-	.
=5	=5
1A	.
0G	.
*Xlig	*
=6	=6
0.F	-de
=7	=7
1r	.
1r}	.
{1F	dort
=8	=8
0A	o-
1B-	-ben
=9	=9
0c	vor
1B-	dem
=10	=10
0.c	holtʒ}
=11	=11
1r	.
1r}	.
{1C	Mit
=12	=12
0F	ſei-
1G	nem
=13	=13
*lig	*
1A	ſchnel-
1F	.
*Xlig	*
1c	-len
=14	=14
*lig	*
0c	win-
1B-	.
=15	=15
1A	.
0G	.
*Xlig	*
=16	=16
0.F	-de
=17	=17
1r	.
1r}	.
{1F	fand
=18	=18
0A	er
1B-	ein
=19	=19
0c	wild
1B-	was
=20	=20
0.c	ſtoltʒ}
=21	=21
1r	.
1r}	.
{1c	Auff
=22	=22
1B-	ei-
0G	-ner
=23	=23
1.A	wey-
2G	.
2A/	.
2B-	.
=24	=24
0c	.
1B-	-ten
=25	=25
1.c	hey-
2B-	.
1c	.
=26	=26
0F}	-den,
{1F	da
=27	=27
0G	er
1G	das
=28	=28
1E	wild
0D	er-
=29	=29
0.C	-ſach,
=30	=30
1r	.
1r}	.
{1C	mit
=31	=31
!LO:TX:a:t=P:coloured notes:problem	!
0F	ſei-
!LO:TX:a:t=P:coloured notes:problem	!
0F	-nen
=32-	=32-
.	.
!LO:TX:a:t=P:coloured notes:problem	!
1G	win-
!LO:TX:a:t=P:coloured notes:problem	!
1G	-den
=33	=33
1.A	bei-
2G	.
1A	.
=34	=34
0F	-den
1r}	.
=35	=35
*lig	*
{1.A	hetʒt
2B-	.
*Xlig	*
1c	er
=36	=36
*lig	*
1A	hin-
1F	.
*Xlig	*
1G	-den-
=37	=37
0F	-nach,
1r	.
=38	=38
1r	.
1r}	.
{1F	vom
=39	=39
0c	gſpür
1c	will
=40	=40
*lig	*
1.G	ich
2A	.
*Xlig	*
1B-	nicht
=41	=41
*lig	*
!LO:TX:a:t=P:coloured notes:problem	!
1c	ſchei-
!LO:TX:a:t=P:coloured notes:problem	!
0A	.
*Xlig	*
=42	=42
0G}	-den,
{1A	der-
=43	=43
0c	-ſel-
1B-	-big
=44	=44
!LO:TX:a:t=P:coloured notes:problem	!
0A	Jä-
!LO:TX:a:t=P:coloured notes:problem	!
0B-	.
=45-	=45-
.	.
!LO:TX:a:t=P:coloured notes:problem	!
0G	-ger
=46	=46
0.F/ll}	ſprach.
==	==
!!!GTL: Jägerlieder und Jägerromanzen
!!!AGN: Romanze, Ballade, Lied, Jaegerlied
!! Ott III 1544 No. 6.
!!!ONB: ESAC (Essen Associative Code) Database: ALTDEU
!!!AMT: simple triple
!!!AIN: vox
!!!EED: Helmut Schaffrath
!!!EEV: 1.0
!!!RDF**kern: l = terminal long
!!!AMD: Ionian
!!!URL-scan: https://rosdok.uni-rostock.de/mcrviewer/recordIdentifier/rosdok_ppn738218359/iview2/phys_0620.iview2?x=-27.342981878423416&y=301.3472601179965&scale=0.6340035897852&rotation=0&layout=singlePageLayout&logicalDiv=log_0016
!!!ENC: Anna Maria Matuszewska
!!!EEV: 2024/18/03
*-	*-
